X: 40229
T: Tip The Cruiskeen
R: jig
M: 6/8
K: Amajor
A2B c2A|B2G A2F|cAF FAF|cAF FAF|
A2B c2A|B2G A2F|BGE EGE|BGE EGE|
e2c d2B|c2A cde|BGE EGE|BGE EGE|
e2c d2B|c2A cde|BGE EGE|BGE EGE|
A2B c2A|B2G A2F|cAF FAF|cAF FAF|
A2B c2A|B2G A2F|BGE EGE|BGE EGE|
e2c d2B|c2A cde|dBc BGB|EGE EFE|
e2c d2B|c2A cde|gfe dcB|AGF EFG|

